X:630
T: Mick Mahony's #1
T: If I Had a Wife
T: Cullen Slide #1
S: "Johnny O'Leary of Sliabh Luachra" (#90)
Z: B.Black
L: 1/8
M: 12/8
Q: 350
R: slide
K: G
D|G2e dBG F2E E2G|FFA DEF G2A D3|
GBd dBG FAA EFG|1 F2A DEF G3 G2 :|2\
F2A DEF G3 G3||
d3 gB d2c A2B|cBA Afe d2B G2B|
d2B g2B d2c A2g|1 fed cBA G3 G3 :|2\
fed cBA G3 g3||
fed c3 e2d B2d|fed cBA G2A B2g|
fed c3 e2d B2d|fed cBA G3 G3 :|
